X: 276
T: Shiyang jin
%%abc-version 2.0
%%abcx-abcm2ps-target-version 5.9.1 (29 Sep 2008)
%%abc-creator hum2abc beta
%%abcx-conversion-date 2013/10/02 07:52:29
%%abc-edited-by Helmut Schaffrath
%%humdrum-veritas 1441261593
%%humdrum-veritas-data 275360576
%%continueall 1
%%barnumbers 0
L: 1/16
M: 2/4
K: E
E4F4 [I:setbarnb 1]| 
E2 D CB,4 | 
e2> c2 B2 G2 | 
F8 | 
E2 C E2< F2 F | 
B2D6 | 
C E F G F E D C | 
B,8 | 
B,2> C2E4 | 
E F E CB,4 | 
c2 c B G2 B2 | 
F6G2 | 
E2 C EF4 | 
B2> c2G4 | 
C2 C B, E2 G2 | 
F8 | 
E2 B,2 D2 C2 | 
B,8 |]  



